X: 1
M: 3/4
L: 1/4
K: D
A/F/ \
| "D"D2D | "A"E2F | "Bm"c2c | "G"B2A | "Bm"B2A | "Em"B2d | "A"e3  | "A7"def |
| "D"D2D | "A"E2F | "Bm"c2c | "G"B2A | "Em"B2A | "A7"B2c | "D"d3- |     d2A |]
[|"D"d2f | "A"e2d |  "G"Bd2 | "D"A2F |  "D"A2A | "Bm"g2f |"Em"e3- | "A7"e2a |
| "D"fa2 | "D"f2d |  "G"B2d | "D"A2F | "A7"A2A |     B2c | "D"d3- |     d2  |]
